automatic/svg/Sinclair - ZX 81.svg

<?xml version="1.0" encoding="UTF-8" standalone="no"?>
<svg
   xmlns:dc="http://purl.org/dc/elements/1.1/"
   xmlns:cc="http://creativecommons.org/ns#"
   xmlns:rdf="http://www.w3.org/1999/02/22-rdf-syntax-ns#"
   xmlns:svg="http://www.w3.org/2000/svg"
   xmlns="http://www.w3.org/2000/svg"
   viewBox="0 0 320 320"
   height="320"
   width="320"
   xml:space="preserve"
   version="1.1"
   id="svg2"><metadata
     id="metadata8"><rdf:RDF><cc:Work
         rdf:about=""><dc:format>image/svg+xml</dc:format><dc:type
           rdf:resource="http://purl.org/dc/dcmitype/StillImage" /></cc:Work></rdf:RDF></metadata><defs
     id="defs6"><clipPath
       id="clipPath16"
       clipPathUnits="userSpaceOnUse"><path
         id="path18"
         d="M 0,256 256,256 256,0 0,0 0,256 Z" /></clipPath></defs><g
     transform="matrix(1.25,0,0,-1.25,0,320)"
     id="g10"><g
       id="g12"><g
         clip-path="url(#clipPath16)"
         id="g14"><g
           transform="translate(244,44)"
           id="g20"><path
             id="path22"
             style="fill:#f2f2f2;fill-opacity:1;fill-rule:nonzero;stroke:none"
             d="m 0,0 -232,0 0,95 c 0,2.761 2.239,5 5,5 l 222,0 c 2.762,0 5,-2.239 5,-5 L 0,0 Z M 0,102.478 C -1.432,103.438 -3.151,104 -5,104 l -222,0 c -1.849,0 -3.569,-0.562 -5,-1.522 L -232,140 0,140 0,102.478 Z M -232,168 l 232,0 0,-24 -232,0 0,24 z m 232,4 -232,0 -4,0 0,-4 0,-24 0,-4 0,-45 0,-95 0,-4 4,0 232,0 4,0 0,4 0,95 0,45 0,4 0,24 0,4 -4,0 z" /></g><path
           id="path24"
           style="fill:#f2f2f2;fill-opacity:1;fill-rule:nonzero;stroke:none"
           d="m 232,56 -29.679,0 0,12 29.679,0 0,-12 z m -49.439,12 15.521,0 0,-12 -15.521,0 0,12 z m -19.76,0 15.521,0 0,-12 -15.521,0 0,12 z m -19.76,0 15.52,0 0,-12 -15.52,0 0,12 z m -19.761,0 15.521,0 0,-12 -15.521,0 0,12 z m -19.759,0 15.52,0 0,-12 -15.52,0 0,12 z m -19.761,0 15.52,0 0,-12 -15.52,0 0,12 z M 64,68 l 15.521,0 0,-12 L 64,56 64,68 Z m -19.76,0 15.521,0 0,-12 -15.521,0 0,12 z m -20,0 15.76,0 0,-12 -15.76,0 0,12 z m -4.24,60 16,0 0,-12 -16,0 0,12 z m 20,0 16,0 0,-12 -16,0 0,12 z m 20,0 16,0 0,-12 -16,0 0,12 z m 20,0 16,0 0,-12 -16,0 0,12 z m 20,0 16,0 0,-12 -16,0 0,12 z m 20,0 16,0 0,-12 -16,0 0,12 z m 20,0 16,0 0,-12 -16,0 0,12 z m 20,0 16,0 0,-12 -16,0 0,12 z m 20,0 16,0 0,-12 -16,0 0,12 z m 20,0 16,0 0,-12 -16,0 0,12 z m 16,-40 16,0 0,-12 -16,0 0,12 z m -20,0 16,0 0,-12 -16,0 0,12 z m -20,0 16,0 0,-12 -16,0 0,12 z m -20,0 16,0 0,-12 -16,0 0,12 z m -20,0 16,0 0,-12 -16,0 0,12 z m -20,0 16,0 0,-12 -16,0 0,12 z m -20,0 16,0 0,-12 -16,0 0,12 z m -20,0 16,0 0,-12 -16,0 0,12 z m -20,0 16,0 0,-12 -16,0 0,12 z m -8,8 -16,0 0,12 16,0 0,-12 z m 20,0 -16,0 0,12 16,0 0,-12 z m 20,0 -16,0 0,12 16,0 0,-12 z m 20,0 -16,0 0,12 16,0 0,-12 z m 20,0 -16,0 0,12 16,0 0,-12 z m 20,0 -16,0 0,12 16,0 0,-12 z m 20,0 -16,0 0,12 16,0 0,-12 z m 20,0 -16,0 0,12 16,0 0,-12 z m 20,0 -16,0 0,12 16,0 0,-12 z m -172,-8 16,0 0,-12 -16,0 0,12 z m 192,8 -16,0 0,12 16,0 0,-12 z m 4,0 0,12 0,4 -4,0 -8,0 0,4 0,12 0,4 -4,0 -16,0 -4,0 -16,0 -4,0 -16,0 -4,0 -16,0 -4,0 -16,0 -4,0 -16,0 -4,0 -16,0 -4,0 -16,0 -4,0 -16,0 -4,0 -16,0 -4,0 0,-4 0,-12 0,-4 4,0 8,0 0,-4 0,-12 0,-4 4,0 0,-4 0,-12 0,-4 -7.76,0 -4,0 0,-4 0,-12 0,-4 4,0 15.76,0 0.24,0 3.76,0 0.24,0 15.52,0 0.24,0 3.76,0 0.24,0 15.521,0 0.239,0 3.761,0 0.239,0 15.52,0 0.241,0 3.759,0 0.241,0 15.52,0 0.239,0 3.761,0 0.239,0 15.521,0 0.24,0 3.76,0 0.24,0 15.52,0 0.24,0 3.76,0 0.24,0 15.52,0 0.24,0 3.76,0 0.24,0 15.52,0 0.24,0 3.76,0 0.24,0 29.679,0 4,0 0,4 0,12 0,4 0,4 0,12 0,4 -4,0 0,4 z" /></g></g></g></svg>

<?xml version="1.0" encoding="UTF-8" standalone="no"?>
<svg
   xmlns:dc="http://purl.org/dc/elements/1.1/"
   xmlns:cc="http://creativecommons.org/ns#"
   xmlns:rdf="http://www.w3.org/1999/02/22-rdf-syntax-ns#"
   xmlns:svg="http://www.w3.org/2000/svg"
   xmlns="http://www.w3.org/2000/svg"
   viewBox="0 0 320 234.66665"
   height="234.66666"
   width="320"
   xml:space="preserve"
   id="svg2"
   version="1.1"><metadata
     id="metadata8"><rdf:RDF><cc:Work
         rdf:about=""><dc:format>image/svg+xml</dc:format><dc:type
           rdf:resource="http://purl.org/dc/dcmitype/StillImage" /></cc:Work></rdf:RDF></metadata><defs
     id="defs6"><clipPath
       id="clipPath18"
       clipPathUnits="userSpaceOnUse"><path
         id="path16"
         d="M 0,256 H 256 V 0 H 0 Z" /></clipPath></defs><g
     transform="matrix(1.3333333,0,0,-1.3333333,-10.666666,287.99999)"
     id="g10"><g
       id="g12"><g
         clip-path="url(#clipPath18)"
         id="g14"><g
           transform="translate(244,44)"
           id="g20"><path
             id="path22"
             style="fill:#f2f2f2;fill-opacity:1;fill-rule:nonzero;stroke:none"
             d="m 0,0 h -232 v 95 c 0,2.761 2.239,5 5,5 H -5 c 2.762,0 5,-2.239 5,-5 z M 0,102.478 C -1.432,103.438 -3.151,104 -5,104 h -222 c -1.849,0 -3.569,-0.562 -5,-1.522 V 140 H 0 Z M -232,168 H 0 v -24 h -232 z m 232,4 h -232 -4 V 168 144 140 95 0 -4 h 4 232 4 v 4 95 45 4 24 4 z" /></g><path
           id="path24"
           style="fill:#f2f2f2;fill-opacity:1;fill-rule:nonzero;stroke:none"
           d="M 232,56 H 202.321 V 68 H 232 Z m -49.439,12 h 15.521 V 56 h -15.521 z m -19.76,0 h 15.521 V 56 h -15.521 z m -19.76,0 h 15.52 V 56 h -15.52 z m -19.761,0 h 15.521 V 56 H 123.28 Z m -19.759,0 h 15.52 V 56 h -15.52 z M 83.76,68 H 99.28 V 56 H 83.76 Z M 64,68 H 79.521 V 56 H 64 Z M 44.24,68 H 59.761 V 56 H 44.24 Z m -20,0 H 40 V 56 H 24.24 Z M 20,128 H 36 V 116 H 20 Z m 20,0 H 56 V 116 H 40 Z m 20,0 H 76 V 116 H 60 Z m 20,0 H 96 V 116 H 80 Z m 20,0 h 16 v -12 h -16 z m 20,0 h 16 v -12 h -16 z m 20,0 h 16 v -12 h -16 z m 20,0 h 16 v -12 h -16 z m 20,0 h 16 v -12 h -16 z m 20,0 h 16 v -12 h -16 z m 16,-40 h 16 V 76 h -16 z m -20,0 h 16 V 76 h -16 z m -20,0 h 16 V 76 h -16 z m -20,0 h 16 V 76 h -16 z m -20,0 h 16 V 76 h -16 z m -20,0 h 16 V 76 h -16 z m -20,0 h 16 V 76 H 96 Z M 76,88 H 92 V 76 H 76 Z M 56,88 H 72 V 76 H 56 Z m -8,8 H 32 v 12 h 16 z m 20,0 H 52 v 12 h 16 z m 20,0 H 72 v 12 h 16 z m 20,0 H 92 v 12 h 16 z m 20,0 h -16 v 12 h 16 z m 20,0 h -16 v 12 h 16 z m 20,0 h -16 v 12 h 16 z m 20,0 h -16 v 12 h 16 z m 20,0 h -16 v 12 h 16 z M 36,88 H 52 V 76 H 36 Z m 192,8 h -16 v 12 h 16 z m 4,0 v 12 4 h -4 -8 v 4 12 4 h -4 -16 -4 -16 -4 -16 -4 -16 -4 -16 -4 H 100 96 80 76 60 56 40 36 20 16 v -4 -12 -4 h 4 8 v -4 -12 -4 h 4 V 88 76 72 h -7.76 -4 V 68 56 52 h 4 H 40 40.24 44 44.24 59.76 60 63.76 64 h 15.521 0.239 3.761 0.239 15.52 0.241 3.759 0.241 15.52 0.239 3.761 0.239 15.521 0.24 3.76 0.24 15.52 0.24 3.76 0.24 15.52 0.24 3.76 0.24 15.52 0.24 3.76 0.24 29.679 4 v 4 12 4 4 12 4 h -4 z" /></g></g></g></svg>
